X:21
T:Jump at the Sun
C:John Kirkpatrick
S:Bernie Waugh
R:Jig
M:6/8
L:1/8
K:G minor
|:\
"Gm"GBd ^c2d|GBd ^c2d|gdd gdd|dcB "D"A3|
"Gm"GBd ^c2d|GBd ^c2d|gdd "Cm"edc|1\
"D7"BcA "Gm"G3:|2"D7"BcA "Gm"G2d||
|:\
"Gm"gdd bag|"D7"add c'ba|"Gm"bag bag|"D"a^fd "D7"e2d|
"Gm"gdd bag|"D7"add c'ba|"Gm"gdd "Cm"edc|1\
"D7"BcA "Gm"G2d:|2"D7"BcA "Gm"G3|]

